style-guide/assets/xd-icons-question-mark-small.svg

<?xml version="1.0" encoding="UTF-8"?>
<svg width="18px" height="18px" viewBox="0 0 18 18" version="1.1" xmlns="http://www.w3.org/2000/svg" xmlns:xlink="http://www.w3.org/1999/xlink">
    <!-- Generator: Sketch 51.3 (57544) - http://www.bohemiancoding.com/sketch -->
    <title>question</title>
    <desc>Created with Sketch.</desc>
    <defs>
        <path d="M9,16 C5.141,16 2,12.859 2,9 C2,5.141 5.141,2 9,2 C12.859,2 16,5.141 16,9 C16,12.859 12.859,16 9,16 M9,0 C4.037,0 0,4.037 0,9 C0,13.963 4.037,18 9,18 C13.963,18 18,13.963 18,9 C18,4.037 13.963,0 9,0 M9,4 C8.189,4 7.435,4.316 6.874,4.892 C6.488,5.287 6.496,5.92 6.892,6.306 C7.287,6.691 7.922,6.684 8.306,6.288 C8.487,6.102 8.733,6 9,6 C9.552,6 10,6.449 10,7 C10,7.551 9.552,8 9,8 C8.447,8 8,8.447 8,9 L8,10 C8,10.553 8.447,11 9,11 C9.553,11 10,10.553 10,10 L10,9.815 C11.162,9.401 12,8.302 12,7 C12,5.346 10.654,4 9,4 M9.9199,12.6191 C9.8989,12.5601 9.8699,12.5001 9.8299,12.4391 L9.7099,12.2901 C9.6599,12.2501 9.6089,12.2101 9.5499,12.1701 C9.4999,12.1301 9.4399,12.0991 9.3799,12.0801 C9.3189,12.0501 9.2599,12.0291 9.1899,12.0191 C8.8699,11.9601 8.5199,12.0601 8.2899,12.2901 C8.1089,12.4801 7.9999,12.7301 7.9999,13.0001 C7.9999,13.1301 8.0299,13.2601 8.0799,13.3801 C8.1299,13.5101 8.1999,13.6091 8.2899,13.7101 C8.3899,13.8001 8.4899,13.8691 8.6199,13.9201 C8.7399,13.9701 8.8699,14.0001 8.9999,14.0001 C9.0599,14.0001 9.1299,13.9901 9.1899,13.9801 C9.2599,13.9701 9.3189,13.9491 9.3799,13.9201 C9.4399,13.9001 9.4999,13.8691 9.5499,13.8301 C9.6089,13.8001 9.6599,13.7501 9.7099,13.7101 C9.8899,13.5191 9.9999,13.2601 9.9999,13.0001 C9.9999,12.9391 9.9899,12.8691 9.9799,12.8001 C9.9699,12.7401 9.9499,12.6801 9.9199,12.6191" id="path-1"></path>
    </defs>
    <g id="question" stroke="none" stroke-width="1" fill="none" fill-rule="evenodd">
        <mask id="mask-2" fill="white">
            <use xlink:href="#path-1"></use>
        </mask>
        <use id="icons/18px/Question" fill="#000000" xlink:href="#path-1"></use>
    </g>
</svg>

<svg viewBox="0 0 18 18" xmlns="http://www.w3.org/2000/svg" xmlns:xlink="http://www.w3.org/1999/xlink">
  <path d="M9 16c-3.859 0-7-3.141-7-7s3.141-7 7-7 7 3.141 7 7-3.141 7-7 7M9 0C4.037 0 0 4.037 0 9s4.037 9 9 9 9-4.037 9-9-4.037-9-9-9m0 4a2.94 2.94 0 0 0-2.126.892.999.999 0 1 0 1.432 1.396A.957.957 0 0 1 9 6a1.001 1.001 0 0 1 0 2 1 1 0 0 0-1 1v1a1 1 0 1 0 2 0v-.185A2.993 2.993 0 0 0 12 7c0-1.654-1.346-3-3-3m.92 8.62a.84.84 0 0 0-.09-.18l-.12-.15c-.05-.04-.101-.08-.16-.12a.535.535 0 0 0-.17-.09.613.613 0 0 0-.19-.06 1.03 1.03 0 0 0-.9.27c-.181.19-.29.44-.29.71 0 .13.03.26.08.38.05.13.12.23.21.33.1.09.2.16.33.21.12.05.25.08.38.08.06 0 .13-.01.19-.02a.64.64 0 0 0 .19-.06c.06-.02.12-.05.17-.09.059-.03.11-.08.16-.12.18-.19.29-.45.29-.71 0-.06-.01-.13-.02-.2a.652.652 0 0 0-.06-.18"/>
</svg>
